X: 37347
T: Slane Lasses, The
R: jig
M: 6/8
K: Emajor
F|:EGB e2g|fed e2B|Bcc BGF|GBc ~F3|
EGB e2g|fed e2B|Bcc Be/f/g|1 fed eGF:|2 fed e2||
|:f|g3 gec|Bce efg|ef2 fec|cef fga|
g3 gec|Bce efg|ef2 fec|Bed e2:|

